public/images/hybrid.svg

<svg width="225" height="224" viewBox="0 0 225 224" xmlns="http://www.w3.org/2000/svg" xmlns:xlink="http://www.w3.org/1999/xlink"><title>Group 4</title><defs><path d="M211.874 22.6a19.94 19.94 0 0 0-13.881-5.6H37.007C25.961 17 17 25.958 17 37.007v160.986c0 5.39 2.133 10.283 5.6 13.881L211.875 22.601z" id="a"/><mask id="d" x="0" y="0" width="194.874" height="194.874" fill="#fff"><use xlink:href="#a"/></mask><linearGradient x1="100%" y1="100%" x2="0%" y2="0%" id="f"><stop stop-color="#6CF388" offset="0%"/><stop stop-color="#3FD99F" offset="100%"/></linearGradient><path d="M206.874 17.6a19.94 19.94 0 0 0-13.881-5.6H32.007C20.961 12 12 20.958 12 32.007v160.986c0 5.39 2.133 10.283 5.6 13.881L206.875 17.601z" id="e"/><circle id="b" cx="34" cy="1" r="56"/><mask id="h" x="0" y="0" width="112" height="112" fill="#fff"><use xlink:href="#b"/></mask><circle id="c" cx="12" cy="131" r="19"/><mask id="i" x="0" y="0" width="38" height="38" fill="#fff"><use xlink:href="#c"/></mask></defs><g transform="translate(1)" fill="none" fill-rule="evenodd"><use stroke="#DDD" mask="url(#d)" stroke-width="2" fill="#FFF" transform="rotate(-180 114.437 114.437)" xlink:href="#a"/><circle stroke="#DDD" cx="113" cy="114" r="37"/><circle stroke="#DDD" cx="113.5" cy="114.5" r="48.5"/><circle stroke="#DDD" cx="113.5" cy="114.5" r="85.5"/><path d="M211.5 223.5V.5m-24.875 223V.5m-24.875 223V.5m-24.875 223V.5M112 223.5V.5m-24.875 223V.5m-24.875 223V.5m-24.875 223V.5M12.5 223.5V.5M223.5 12.5H.5m223 24.875H.5m223 24.875H.5m223 24.875H.5M223.5 112H.5m223 24.875H.5m223 24.875H.5m223 24.875H.5m223 24.875H.5" stroke="#DDD" stroke-linecap="square"/><mask id="g" fill="#fff"><use xlink:href="#e"/></mask><use fill="url(#f)" xlink:href="#e"/><path d="M123.536 80.21a36.114 36.114 0 0 0-10.826-1.652c-3.648 0-7.17.547-10.493 1.554C99.871 80.459 82.654 82.504 57 72c0 0 2.988 15.366 25.376 23.043a36.094 36.094 0 0 0-5.857 19.757c0 20.016 16.204 36.243 36.191 36.243 19.99 0 36.192-16.227 36.192-36.243a36.11 36.11 0 0 0-5.933-19.88C165.038 87.205 168 72 168 72c-23.778 9.736-40.305 8.69-44.464 8.21M90.49 114.997c0-12.29 9.949-22.252 22.221-22.252 12.273 0 22.224 9.963 22.224 22.252 0 12.29-9.951 22.255-22.224 22.255-12.272 0-22.221-9.965-22.221-22.255" fill="#FFF" mask="url(#g)"/><g opacity=".3" mask="url(#g)" stroke-width="12" stroke="#FFF"><use mask="url(#h)" xlink:href="#b"/></g><g opacity=".3" mask="url(#g)" stroke-width="10" stroke="#FFF"><use mask="url(#i)" xlink:href="#c"/></g><path d="M223.5.5L.444 223.556" stroke="#DDD" stroke-linecap="square"/></g></svg>

<svg width="225" height="224" viewBox="0 0 225 224" xmlns="http://www.w3.org/2000/svg" xmlns:xlink="http://www.w3.org/1999/xlink"><title>Group 4</title><defs><path d="M211.874 22.6a19.94 19.94 0 0 0-13.881-5.6H37.007C25.961 17 17 25.958 17 37.007v160.986c0 5.39 2.133 10.283 5.6 13.881L211.875 22.601z" id="a"/><mask id="d" x="0" y="0" width="194.874" height="194.874" fill="#fff"><use xlink:href="#a"/></mask><linearGradient x1="100%" y1="100%" x2="0%" y2="0%" id="f"><stop stop-color="#6CF388" offset="0%"/><stop stop-color="#3FD99F" offset="100%"/></linearGradient><path d="M206.874 17.6a19.94 19.94 0 0 0-13.881-5.6H32.007C20.961 12 12 20.958 12 32.007v160.986c0 5.39 2.133 10.283 5.6 13.881L206.875 17.601z" id="e"/><circle id="b" cx="34" cy="1" r="56"/><mask id="h" x="0" y="0" width="112" height="112" fill="#fff"><use xlink:href="#b"/></mask><circle id="c" cx="12" cy="131" r="19"/><mask id="i" x="0" y="0" width="38" height="38" fill="#fff"><use xlink:href="#c"/></mask></defs><g transform="translate(1)" fill="none" fill-rule="evenodd"><use stroke="#DDD" mask="url(#d)" stroke-width="2" fill="#FFF" transform="rotate(-180 114.437 114.437)" xlink:href="#a"/><circle stroke="#DDD" cx="113" cy="114" r="37"/><circle stroke="#DDD" cx="113.5" cy="114.5" r="48.5"/><circle stroke="#DDD" cx="113.5" cy="114.5" r="85.5"/><g stroke="#DDD" stroke-linecap="square"><path d="M211.5 223.5V.5M186.625 223.5V.5M161.75 223.5V.5M136.875 223.5V.5M112 223.5V.5M87.125 223.5V.5M62.25 223.5V.5M37.375 223.5V.5M12.5 223.5V.5"/></g><g stroke="#DDD" stroke-linecap="square"><path d="M223.5 12.5H.5M223.5 37.375H.5M223.5 62.25H.5M223.5 87.125H.5M223.5 112H.5M223.5 136.875H.5M223.5 161.75H.5M223.5 186.625H.5M223.5 211.5H.5"/></g><mask id="g" fill="#fff"><use xlink:href="#e"/></mask><use fill="url(#f)" xlink:href="#e"/><path d="M123.536 80.21a36.114 36.114 0 0 0-10.826-1.652c-3.648 0-7.17.547-10.493 1.554C99.871 80.459 82.654 82.504 57 72c0 0 2.988 15.366 25.376 23.043a36.094 36.094 0 0 0-5.857 19.757c0 20.016 16.204 36.243 36.191 36.243 19.99 0 36.192-16.227 36.192-36.243a36.11 36.11 0 0 0-5.933-19.88C165.038 87.205 168 72 168 72c-23.778 9.736-40.305 8.69-44.464 8.21M90.49 114.997c0-12.29 9.949-22.252 22.221-22.252 12.273 0 22.224 9.963 22.224 22.252 0 12.29-9.951 22.255-22.224 22.255-12.272 0-22.221-9.965-22.221-22.255" fill="#FFF" mask="url(#g)"/><g opacity=".3" mask="url(#g)" stroke-width="12" stroke="#FFF"><use mask="url(#h)" xlink:href="#b"/></g><g opacity=".3" mask="url(#g)" stroke-width="10" stroke="#FFF"><use mask="url(#i)" xlink:href="#c"/></g><path d="M223.5.5L.444 223.556" stroke="#DDD" stroke-linecap="square"/></g></svg>
